**kern	**kern	**dynam
*part1	*part1	*part1
*staff2	*staff1	*
*I"Piano	*	*
*clefF4	*clefG2	*
*k[f#c#g#d#]	*k[f#c#g#d#]	*
=1	=1	=1
*	*^	*
!	!LO:TX:b:i:t=cresc.	!	!
4r	(2b	2.cn 2.e	.
(4Cn	.	.	.
4E	4a)	.	.
4A)	4a	4c 4e	.
=	=	=	=
4r	2.a	2.cn 2.e	.
(4Cn	.	.	.
4E	.	.	.
4A)	4a	4c 4e	.
=	=	=	=
4r	[2e 2a	2.B 2.dn	.
(4BB	.	.	.
4Dn	4e] 4g#	.	.
4G#)	4e 4g#	4B 4d	.
=	=	=	=
4r	2.e 2.g#	2.B 2.dn	f
(4BB	.	.	.
4Dn	.	.	.
4G#)	4e 4g#	4B 4d	>
*	*v	*v	*
=	=	=
4r	2.cn 2.e 2.ccn	.
(4AA	.	.
4Cn	.	.
4E)	4c 4e 4cc	.
=	=	=
4r	2.B 2.e 2.b	.
(4GGn	.	.
4BB	.	.
4GG	4B 4e 4b	.
=	=	=
4FF#	2B 2d#X 2a	] p
4BB	.	.
*	*^	*
4GGn	4b	2B 2e	.
4EE)	4gn	.	.
*	*v	*v	*
=	=	=
!	!LO:TX:b:i:t=cresc.	!
(4BB	[1B [1d# [1f#	.
4BBB	.	.
4DD#	.	.
4FF#	.	.
=	=	=
4BB	2B] 2d#] 2f#]	.
4C#	.	.
4BB	2B 2d# 2f#	.
4AA)	.	.
=	=	=
*-	*-	*-
!!!system-decoration: {(s1,s2)}
